X: 13880
T: Fox On The Prowl, The
R: reel
M: 4/4
K: Dmajor
|:defd e~A3|BAFA dAFA|d2 de fdfa|b2 af fee2|
defd e~A3|BAFA dAFA|d2 df abaf|edef d3 A:|
|:defd A2 AB|defd e~A3|BAFA defa|b2 af feea|
b~f3 afef|defd e~A3|BAFA defd|edef d3 A:|

